lib/healthicons/icons/solid/devices/observation.svg

<svg fill="none" height="48" viewBox="0 0 48 48" width="48" xmlns="http://www.w3.org/2000/svg"><path clip-rule="evenodd" d="m36 16c2.2091 0 4-1.7909 4-4 0-2.20914-1.7909-4-4-4s-4 1.79086-4 4c0 2.2091 1.7909 4 4 4zm0 2c3.3137 0 6-2.6863 6-6 0-3.31371-2.6863-6-6-6s-6 2.68629-6 6c0 3.3137 2.6863 6 6 6zm-17.9039-2.8948c-1.4721-1.4729-3.8597-1.4737-5.3329-.0018l-.7041.7035c-1.3392-.3806-2.83755-.04-3.89207 1.0216-1.55604 1.5666-1.55604 4.1091 0 5.6757l.83297.8386v10.6572h-3v2h3 .05051c-.64828.6353-1.05051 1.5207-1.05051 2.5 0 1.933 1.567 3.5 3.5 3.5s3.5-1.567 3.5-3.5c0-.9793-.4022-1.8647-1.0505-2.5h20.101c-.6483.6353-1.0505 1.5207-1.0505 2.5 0 1.933 1.567 3.5 3.5 3.5s3.5-1.567 3.5-3.5c0-.9793-.4022-1.8647-1.0505-2.5h3.0505v-2h-4v-3.0003h.0662c2.1726 0 3.9338-1.7759 3.9338-3.9667 0-2.1907-1.7612-3.9666-3.9338-3.9666h-17.9562c-.0815 0-.1598-.0327-.2175-.0908l-.3664-.3688.3684-.3681c1.4733-1.472 1.4741-3.8594.0019-5.3324zm.0206 6.0826.3642-.3639c.6918-.6912.6922-1.8121.0009-2.5037l-1.8002-1.8011c-.6914-.6918-1.8129-.6922-2.5048-.0009l-.3505.3502zm17.8833 9.8119v3.0003h-25v-8.6437l5.2752 5.3109c.2115.2129.4981.3325.797.3325zm1-20.9997c0-.55228-.4477-1-1-1s-1 .44772-1 1v2.3028l1.1679 1.7519c.3064.4595.9273.5837 1.3868.2774.4595-.3064.5837-.9273.2774-1.3868l-.8321-1.2481z" fill="#333" fill-rule="evenodd"/></svg>

<svg width="48" height="48" viewBox="0 0 48 48" fill="none" xmlns="http://www.w3.org/2000/svg">
<path fill-rule="evenodd" clip-rule="evenodd" d="M36 16C38.2091 16 40 14.2091 40 12C40 9.79086 38.2091 8 36 8C33.7909 8 32 9.79086 32 12C32 14.2091 33.7909 16 36 16ZM36 18C39.3137 18 42 15.3137 42 12C42 8.68629 39.3137 6 36 6C32.6863 6 30 8.68629 30 12C30 15.3137 32.6863 18 36 18ZM18.0961 15.1052C16.624 13.6323 14.2364 13.6315 12.7632 15.1034L12.0591 15.8069C10.7199 15.4263 9.22155 15.7669 8.16703 16.8285C6.61099 18.3951 6.61099 20.9376 8.16703 22.5042L9 23.3428V34H6V36H9H9.05051C8.40223 36.6353 8 37.5207 8 38.5C8 40.433 9.567 42 11.5 42C13.433 42 15 40.433 15 38.5C15 37.5207 14.5978 36.6353 13.9495 36H34.0505C33.4022 36.6353 33 37.5207 33 38.5C33 40.433 34.567 42 36.5 42C38.433 42 40 40.433 40 38.5C40 37.5207 39.5978 36.6353 38.9495 36H42V34H38V30.9997H38.0662C40.2388 30.9997 42 29.2238 42 27.033C42 24.8423 40.2388 23.0664 38.0662 23.0664H20.11C20.0285 23.0664 19.9502 23.0337 19.8925 22.9756L19.5261 22.6068L19.8945 22.2387C21.3678 20.7667 21.3686 18.3793 19.8964 16.9063L18.0961 15.1052ZM18.1167 21.1878L18.4809 20.8239C19.1727 20.1327 19.1731 19.0118 18.4818 18.3202L16.6816 16.5191C15.9902 15.8273 14.8687 15.8269 14.1768 16.5182L13.8263 16.8684L18.1167 21.1878ZM36 30.9997V34H11V25.3563L16.2752 30.6672C16.4867 30.8801 16.7733 30.9997 17.0722 30.9997H36ZM37 10C37 9.44772 36.5523 9 36 9C35.4477 9 35 9.44772 35 10V12.3028L36.1679 14.0547C36.4743 14.5142 37.0952 14.6384 37.5547 14.3321C38.0142 14.0257 38.1384 13.4048 37.8321 12.9453L37 11.6972V10Z" fill="#333333"/>
</svg>
